X:1
T:Pari Intervallo
T:Pari Intervallo
T:Anläßlich des Todes von M. K.
T:Arvo Pärt (*1935)
C:Arvo Pärt (*1935)
%%score { 1 | ( 2 3 ) | ( 4 5 ) }
L:1/8
Q:1/4=60
M:none
K:Gb
V:1 treble nm="Pipe Organ" snm="Org."
V:2 treble 
V:3 treble 
V:4 bass-8 
V:5 bass-8 
V:1
 z4 e4- | e2 z2 B4- | B2 z2 B4- | B2 z2 e4- | e2 z2 e4- | e2 z2 g4- | g2 z2 e4- | e2 z2 e4- | %8
 e2 z2 B4- | B2 z2 B4- | B2 z2 B4- | B2 z2 e4- | e2 z2 g4- | g2 z2 g4- | g2 z2 e4- | e2 z2 g4- | %16
 g2 z2 e4- | e2 z2 e4- | e2 z2 g4- | g2 z2 e4- | e2 z2 e4- | e2 z2 B4- | B2 z2 e4- | e2 z2 g4- | %24
 g2 z2 b4- | b2 z2 g4- | g2 z2 b4- | b2 z2 g4- | g2 z2 g4- | g2 z2 g4- | g2 z2 b4- | b2 z2 g4- | %32
 g2 z2 g4- | g2 z2 g4- | g2 z2 g4- | g2 z2 b4- | b2 z2 e'4- | e'2 z2 b4- | b2 z2 b4- | b2 z2 b4- | %40
 b2 z2 b4- | b2 z2 g4- | g2 z2 g4- | g2 z2 g4- | g2 z2 e4- | e2 z2 e4- | e2 z2 e4- | e2 z2 g4- | %48
 g2 z2 b4- | b2 z2 e4- | e2 z2 e4- | e2 z2 g4- | g2 z2 e4- | e2 z2 B4- | B2 z2 e4- | e2 z2 e4- | %56
 e2 z2 e4- | e2 z2 B4- | B2 z2 B4- | B2 z2 e4- | e2 z2 g4- | g2 z2 e4- | e2 z2 e4- | e2 z2 B4- | %64
 B2 z2 e4- | e2 z2 e4- | e2 z2 B4- | B2 z2 B4- | B2 z2 e4- | e2 z2 B4- | B2 z2 B4- | B2 z2 B4- | %72
 B2 z2 B4- | B8 |] %74
V:2
 G8 | E8 | F8 | G8 | A8 | B8 | A8 | G8 | F8 | E8 | F8 | G8 | B8 | c8 | A8 | B8 | G8 | A8 | B8 | %19
 A8 | G8 | F8 | A8 | B8 | e8 | d8 | e8 | B8 | c8 | d8 | e8 | d8 | c8 | d8 | B8 | e8 | g8 | f8 | %38
 e8 | f8 | e8 | d8 | c8 | B8 | A8 | G8 | A8 | B8 | e8 | G8 | A8 | B8 | G8 | F8 | G8 | A8 | G8 | %57
 F8 | E8 | G8 | B8 | A8 | G8 | E8 | A8 | G8 | F8 | E8 | G8 | F8 | E8 | F8 | E8 | E8 |] %74
V:3
 z4 z2 B,2- | B,4 z2 G,2- | G,4 z2 B,2- | B,4 z2 B,2- | B,4 z2 E2- | E4 z2 E2- | E4 z2 E2- | %7
 E4 z2 B,2- | B,4 z2 B,2- | B,4 z2 G,2- | G,4 z2 B,2- | B,4 z2 B,2- | B,4 z2 E2- | E4 z2 G2- | %14
 G4 z2 E2- | E4 z2 E2- | E4 z2 B,2- | B,4 z2 E2- | E4 z2 E2- | E4 z2 E2- | E4 z2 B,2- | %21
 B,4 z2 B,2- | B,4 z2 E2- | E4 z2 E2- | E4 z2 G2- | G4 z2 G2- | G4 z2 G2- | G4 z2 E2- | E4 z2 G2- | %29
 G4 z2 G2- | G4 z2 G2- | G4 z2 G2- | G4 z2 G2- | G4 z2 G2- | G4 z2 E2- | E4 z2 G2- | G4 z2 B2- | %37
 B4 z2 B2- | B4 z2 G2- | G4 z2 B2- | B4 z2 G2- | G4 z2 G2- | G4 z2 G2- | G4 z2 E2- | E4 z2 E2- | %45
 E4 z2 B,2- | B,4 z2 E2- | E4 z2 E2- | E4 z2 G2- | G4 z2 B,2- | B,4 z2 E2- | E4 z2 E2- | %52
 E4 z2 B,2- | B,4 z2 B,2- | B,4 z2 B,2- | B,4 z2 E2- | E4 z2 B,2- | B,4 z2 B,2- | B,4 z2 G,2- | %59
 G,4 z2 B,2- | B,4 z2 E2- | E4 z2 E2- | E4 z2 B,2- | B,4 z2 G,2- | G,4 z2 E2- | E4 z2 B,2- | %66
 B,4 z2 B,2- | B,4 z2 G,2- | G,4 z2 B,2- | B,4 z2 B,2- | B,4 z2 G,2- | G,4 z2 B,2- | B,4 z2 G,2- | %73
 G,8 |] %74
V:4
 E,,8- | E,,8 | =D,,8 | E,,8 | F,,8 | G,,8 | F,,8 | E,,8 | z8 | z8 | =D,,8 | E,,8 | G,,8 | A,,8 | %14
 F,,8 | G,,8 | E,,8 | F,,8 | G,,8 | F,,8 | E,,8 | =D,,8 | F,,8 | G,,8 | C,8 | B,,8 | C,8 | G,,8 | %28
 A,,8 | B,,8 | C,8 | B,,8 | A,,8 | B,,8 | G,,8 | C,8 | E,8 | D,8 | C,8 | D,8 | C,8 | B,,8 | A,,8 | %43
 G,,8 | F,,8 | E,,8 | F,,8 | G,,8 | C,8 | E,,8 | F,,8 | G,,8 | E,,8 | =D,,8 | E,,8 | F,,8 | E,,8 | %57
 =D,,8 | =C,,8 | E,,8 | G,,8 | F,,8 | E,,8 | =C,,8 | F,,8 | E,,8 | =D,,8 | =C,,8 | E,,8 | =D,,8 | %70
 =C,,8 | =D,,8 | E,,8- | E,,8 |] %74
V:5
 x8 | x8 | x8 | x8 | x8 | x8 | x8 | x8 | =D,,8 | =C,,8 | x8 | x8 | x8 | x8 | x8 | x8 | x8 | x8 | %18
 x8 | x8 | x8 | x8 | x8 | x8 | x8 | x8 | x8 | x8 | x8 | x8 | x8 | x8 | x8 | x8 | x8 | x8 | x8 | %37
 x8 | x8 | x8 | x8 | x8 | x8 | x8 | x8 | x8 | x8 | x8 | x8 | x8 | x8 | x8 | x8 | x8 | x8 | x8 | %56
 x8 | x8 | x8 | x8 | x8 | x8 | x8 | x8 | x8 | x8 | x8 | x8 | x8 | x8 | x8 | x8 | x8 | x8 |] %74

